X: 21665
T: Kilmoulis, The
R: jig
M: 6/8
K: Dmajor
A~d2 cdc|BcB ABA|GAG ~F3|FED E2D|
~f3 efe|d2F FEF|GFG BAB|AFD D2e|
~f3 efe|d2F FEF|GFG BAB|ABd e2A|
~f3 efe|d2F FEF|GFG BAB|AFD D2e|
|:~f3 fed|~g3 gfe|~f3 fed|dcB A2e|
~f3 fed|~g3 gfe|fef afd|cBc d2A:|
|:dfa dfa|cce dBA|gfe fed|Bee e2A|
Dfa dfa|cce dBA|gfe fed|cBc d2A:|

